symbols/web/kitesurfing/materialsymbolsoutlined/kitesurfing_wght300gradN25_48px.svg

<svg xmlns="http://www.w3.org/2000/svg" height="48" width="48"><path d="M16 9.4q-1.4 0-2.4-1t-1-2.4q0-1.4 1-2.4t2.4-1q1.4 0 2.4 1t1 2.4q0 1.4-1 2.4t-2.4 1Zm17.3.05L31.65 7.8l5.45-5.5h3.35Zm-28.75 36v-2.2H6q1.55 0 3.1-.525T12 40.95q1.3 1.2 2.925 1.75 1.625.55 3.175.6 1.5 0 3-.55t2.9-1.8q1.35 1.25 2.9 1.8 1.55.55 3.1.55 1.6 0 3.075-.55T36 40.95q1.45 1.25 2.95 1.775 1.5.525 3.05.525h1.5v2.2H42q-1.4 0-2.925-.4T36 43.5q-1.55 1.15-3.075 1.55-1.525.4-2.925.4t-2.925-.4Q25.55 44.65 24 43.5q-1.5 1.1-3 1.525-1.5.425-2.85.425-1.45 0-3.075-.425Q13.45 44.6 12 43.5q-1.55 1.15-3.075 1.55-1.525.4-2.925.4ZM18 38.35q-1.35 0-2.575-.475T13.45 36.75q.7-.55 1.825-1.375L17.15 34l-3.45-6.7q-.4-.75-.6-1.6-.2-.85-.2-1.7v-8q0-1.3.9-2.2.9-.9 2.2-.9h6q2.05 0 3.825-.675Q27.6 11.55 29.1 10.35l1.5 1.55q-1.75 1.5-3.925 2.35-2.175.85-4.675.85h-3.7v8.8h6.1l3.55 3.95q3.15-1.35 5.825-2.15 2.675-.8 4.525-.8.95 0 1.875.325t.925 1.325q0 2-3.35 5.325t-8.5 6.525q.05-.05.1-.05h.15q-1.5-.1-2.9-.85T24 35.4q-1.3 1.45-2.85 2.2-1.55.75-3.15.75Zm1.25-5.85q1.25-.75 3.35-1.925t3.25-1.725l-2.5-2.75-6.65.5Z"/></svg>

<svg xmlns="http://www.w3.org/2000/svg" height="48" width="48"><path d="M16 9.4Q14.6 9.4 13.6 8.4Q12.6 7.4 12.6 6Q12.6 4.6 13.6 3.6Q14.6 2.6 16 2.6Q17.4 2.6 18.4 3.6Q19.4 4.6 19.4 6Q19.4 7.4 18.4 8.4Q17.4 9.4 16 9.4ZM33.3 9.45 31.65 7.8 37.1 2.3H40.45ZM4.55 45.45V43.25H6Q7.55 43.25 9.1 42.725Q10.65 42.2 12 40.95Q13.3 42.15 14.925 42.7Q16.55 43.25 18.1 43.3Q19.6 43.3 21.1 42.75Q22.6 42.2 24 40.95Q25.35 42.2 26.9 42.75Q28.45 43.3 30 43.3Q31.6 43.3 33.075 42.75Q34.55 42.2 36 40.95Q37.45 42.2 38.95 42.725Q40.45 43.25 42 43.25H43.5V45.45H42Q40.6 45.45 39.075 45.05Q37.55 44.65 36 43.5Q34.45 44.65 32.925 45.05Q31.4 45.45 30 45.45Q28.6 45.45 27.075 45.05Q25.55 44.65 24 43.5Q22.5 44.6 21 45.025Q19.5 45.45 18.15 45.45Q16.7 45.45 15.075 45.025Q13.45 44.6 12 43.5Q10.45 44.65 8.925 45.05Q7.4 45.45 6 45.45ZM18 38.35Q16.65 38.35 15.425 37.875Q14.2 37.4 13.45 36.75Q14.15 36.2 15.275 35.375Q16.4 34.55 17.15 34L13.7 27.3Q13.3 26.55 13.1 25.7Q12.9 24.85 12.9 24V16Q12.9 14.7 13.8 13.8Q14.7 12.9 16 12.9H22Q24.05 12.9 25.825 12.225Q27.6 11.55 29.1 10.35L30.6 11.9Q28.85 13.4 26.675 14.25Q24.5 15.1 22 15.1H18.3V23.9H24.4L27.95 27.85Q31.1 26.5 33.775 25.7Q36.45 24.9 38.3 24.9Q39.25 24.9 40.175 25.225Q41.1 25.55 41.1 26.55Q41.1 28.55 37.75 31.875Q34.4 35.2 29.25 38.4Q29.3 38.35 29.35 38.35Q29.4 38.35 29.5 38.35Q28 38.25 26.6 37.5Q25.2 36.75 24 35.4Q22.7 36.85 21.15 37.6Q19.6 38.35 18 38.35ZM19.25 32.5Q20.5 31.75 22.6 30.575Q24.7 29.4 25.85 28.85L23.35 26.1L16.7 26.6Z"/></svg>
